X:1
T:Title
%%score ( 1 2 ) 3
L:1/8
Q:1/4=98
M:6/8
K:A
V:1 treble nm="Grand Piano, Soprano"
V:2 treble 
V:3 bass nm="Choir Pad, Full Surrender (Christien)"
V:1
 [CE]2 [CE] [CA]2 [CA] | .B3 z3 | [DF]2 [DF] [FA][EG][DF] | [CE]6 | [EA]2 [EA] [EB]2 [EB] | %5
w: By~William~James~Kirkpatrick * * *|||||
 z3 .B3 | [CE]2 [CE] [Ec]2 [DB] | [CA]6 | [EB]3 [EB][Ec][DB] | [CA]3 .[CA]3 | [Ec]3 [Ec][EB][EA] | %11
w: ||||||
 [GB]3 .[Ge]3 | [Ae]2 [Ae] [Ae][Ac][EB] | [EA]3 .[Ec]3 | z3 .B3 | [CA]6- | [CA]3 z3 |] %17
w: ||||||
V:2
 x6 | E-[Ec][DB] [CA]2 [CE] | x6 | x6 | x6 | [Ec][Fd][Ec] D-[DA][DF] | x6 | x6 | x6 | x6 | x6 | %11
 x6 | x6 | x6 | [EB]3 E-[Ec][DB] | x6 | x6 |] %17
V:3
 [A,,A,]2 [A,,A,] [A,,E,]2 [A,,E,] | [E,G,]2 [E,G,] [A,,A,]2 [A,,A,] | %2
 [D,A,]2 [D,A,] [D,A,]2 [D,A,] | [A,,A,]6 | [C,A,]2 [C,A,] [E,G,]2 [E,G,] | A,2 A, [D,F,]2 [D,A,] | %6
 [E,A,]2 [E,A,] [E,A,]2 [E,G,] | [A,,A,]6 | [E,G,]3 [E,G,][E,A,][E,G,] | [A,,A,]3 .[A,,A,]3 | %10
 A,3 A,[A,D][A,C] | [E,E]3 .[E,B,]3 | [A,C]2 [A,C] [A,C][A,E][A,D] | [A,C]3 .A,3 | %14
 [E,G,]3 [E,G,]2 [E,G,] | [A,,E,A,]6- | [A,,E,A,]3 z3 |] %17

